!!!OTL: 24. Das Lied vom Rhein.
!!!COM: H. G. Nägeli
!!!ODT: 1816
!!!ARE: Europa, Mitteleuropa, Deutschland, Rheinland
!!!SCT: B0024
!!!TXL: @@DE
!!!YEM: Copyright 1995, estate of Helmut Schaffrath.
**kern	**text
*ICvox	*
*Ivox	*
*M4/4	*
*met(c)	*
*clefG2	*
*k[f#c#]	*
*D:	*
!LO:TX:a:t=Mäßig geſchwind.	!
{4d	Es
=1	=1
4.d	klingt
8f#	ein
4a	hel-
4a	-ler
=2	=2
2.a}	Klang,
{4e	ein
=3	=3
4.f#	ſchö-
8a	-nes
4dd	deut-
4dd	-ſches
=4	=4
2.cc#}	Wort
{4a	in
=5	=5
4.b	je-
8b	-dem
4ee	Hoch-
4ee	-ge-
=6	=6
4.a}	-ſang
{8a	der
4dd	deut-
4a	-ſchen
=7	=7
(4d	Män-
4e	.
4f#)	.
4g#	-ner
=8	=8
2.a}	fort
{4e	Ein
=9	=9
2e	al-
2e	-ter
=10	=10
(4.a	Kö-
8cc#)	.
(4.cc#}	-nig
{8ee)	.
=11	=11
(4.ee	hoch
8dd	.
4cc#)	.
4b/	ge-
=12	=12
(>4a	-bo-
4e)	.
4c#}	-ren,
{4e	dem
=13	=13
2e	je-
2e	-des
=14	=14
(4.a	deut-
8cc#)	.
(4.cc#}	-ſche
{8ee)	.
=15	=15
(4.ee	Herʒ
8dd	.
4cc#)	.
4b/	ge-
=16	=16
(>4a	-ſchwo-
4e)	.
4c#}	-ren
{4a	wie
=17	=17
4.dd	oft
8cc#	ſein
4b	Na-
4b	-me
=18	=18
4.a	wie-
8g	-der-
4f#}	-kehrt,
{4e	man
=19	=19
4f#	hat
4a	ihn
4b	nie
4ee	ge-
=20	=20
2dd	-nug
2cc#	ge-
=21	=21
2dd	-hört.
4r}	.
==	==
!!!AGN: politisch, national, Vaterlands - Lied
!!!GTL: Vaterlandslieder und Heimathgrüße
!!!ONB: ESAC (Essen Associative Code) Database: BOEHME
!!!AMT: simple quadruple
!!!AIN: vox
!!!EED: Helmut Schaffrath
!!!EEV: 1.0
!!@@COMMENT:"Gedicht von Max v. Schenkendorf, 1814. Zuerst in dessen "Gedicten". Stuttgart u. Tübingen 1815, S. 80. 
!!Eine vortreffliche Dichtung, die noch heute paßt. Die Voltsweise ist 1816 von R. G. Nägeli komponiert."
!!@@END:
!!!RDF**kern: > = above
!!Text: Max v. Schenkendorf
!!!URL-scan: https://archive.org/details/BoehmeVtLieder1895/page/n43/mode/2up
!!!ENC: Anna Maria Matuszewska
!!!EEV: 2024/13/06
*-	*-
